app/img/solutions/ic_info_tech.svg

<svg width="28" height="31" viewBox="0 0 28 31" fill="none" xmlns="http://www.w3.org/2000/svg">
    <path d="M23.0673 14.0939C23.3451 14.6466 23.8029 15.0828 24.3618 15.3274C24.9207 15.572 25.5456 15.6096 26.1287 15.4336C26.7117 15.2577 27.2165 14.8793 27.5557 14.3637C27.895 13.8481 28.0475 13.2277 27.987 12.6095C27.9265 11.9912 27.6568 11.414 27.2244 10.9773C26.7919 10.5405 26.2239 10.2718 25.6182 10.2173C25.0126 10.1629 24.4074 10.3262 23.907 10.679C23.4065 11.0318 23.0423 11.5521 22.8771 12.1501H14.2182V8.99137H20.8753C21.1275 8.99137 21.3694 8.88898 21.5477 8.70671C21.7261 8.52444 21.8263 8.27723 21.8263 8.01947V4.65668C22.3269 4.43339 22.737 4.04075 22.9877 3.54479C23.2383 3.04882 23.3142 2.47978 23.2026 1.93334C23.091 1.3869 22.7987 0.896394 22.3749 0.5443C21.951 0.192206 21.4215 0 20.8753 0C20.329 0 19.7995 0.192206 19.3756 0.5443C18.9518 0.896394 18.6595 1.3869 18.5479 1.93334C18.4363 2.47978 18.5122 3.04882 18.7628 3.54479C19.0135 4.04075 19.4236 4.43339 19.9242 4.65668V7.04756H14.2182V2.67399C14.2164 2.50285 14.1705 2.33522 14.085 2.18804C13.5988 1.3821 12.8698 0.759192 12.0075 0.412893C11.1452 0.0665947 10.1963 0.0156136 9.30322 0.26761C8.41018 0.519606 7.62127 1.06097 7.05502 1.81036C6.48878 2.55975 6.17579 3.47669 6.16308 4.42342C6.162 4.64304 6.1779 4.8624 6.21063 5.07946C4.98503 5.39479 3.89654 6.11704 3.11598 7.13287C2.33541 8.1487 1.90693 9.40063 1.89778 10.6922C1.89311 11.4658 2.04025 12.2325 2.33049 12.947C1.73752 13.2016 1.21741 13.6058 0.818766 14.1216C0.420123 14.6374 0.155971 15.2482 0.0510025 15.8967C-0.0539664 16.5452 0.00367543 17.2103 0.21854 17.8298C0.433404 18.4494 0.798474 19.0031 1.27963 19.4394C0.991594 20.2779 0.895711 21.1727 0.999362 22.0551C1.10301 22.9374 1.40343 23.7837 1.87748 24.5287C2.35153 25.2737 2.98657 25.8976 3.73368 26.3523C4.4808 26.807 5.32007 27.0804 6.18685 27.1514C6.29352 28.053 6.67213 28.8982 7.27016 29.5699C7.86819 30.2415 8.65596 30.7063 9.52417 30.8997C10.3924 31.0931 11.298 31.0055 12.1152 30.649C12.9325 30.2926 13.6209 29.685 14.085 28.9106C14.1705 28.7634 14.2164 28.5958 14.2182 28.4246V23.5651H19.9242V25.368C19.3365 25.5366 18.8248 25.9098 18.4775 26.4229C18.1303 26.9361 17.9693 27.5571 18.0224 28.1786C18.0755 28.8002 18.3392 29.3833 18.7682 29.8272C19.1972 30.2712 19.7643 30.5481 20.3718 30.6102C20.9793 30.6723 21.5889 30.5156 22.0954 30.1673C22.6019 29.8189 22.9734 29.3007 23.1459 28.7022C23.3183 28.1037 23.2808 27.4625 23.0399 26.8892C22.799 26.3159 22.3697 25.8466 21.8263 25.5624V22.598C21.8263 22.3403 21.7261 22.0931 21.5477 21.9108C21.3694 21.7285 21.1275 21.6261 20.8753 21.6261H14.2182V18.9534H19.4487C19.6702 19.2552 19.9574 19.5001 20.2875 19.6688C20.6176 19.8375 20.9817 19.9253 21.3508 19.9253C21.8006 19.9252 22.2412 19.7947 22.6214 19.5489C23.0015 19.3031 23.3056 18.9522 23.4984 18.5368C23.6912 18.1214 23.7647 17.6587 23.7104 17.2023C23.6562 16.746 23.4763 16.3147 23.1918 15.9586C22.9072 15.6026 22.5297 15.3363 22.103 15.1908C21.6762 15.0452 21.2179 15.0264 20.7811 15.1364C20.3444 15.2465 19.9471 15.4809 19.6355 15.8125C19.3239 16.144 19.1107 16.5592 19.0208 17.0096H14.2182V14.0939H23.0673ZM25.3926 12.1501C25.5336 12.1501 25.6715 12.1928 25.7888 12.2729C25.9061 12.353 25.9975 12.4669 26.0515 12.6C26.1055 12.7332 26.1196 12.8798 26.0921 13.0212C26.0646 13.1626 25.9967 13.2925 25.8969 13.3944C25.7972 13.4964 25.6701 13.5658 25.5317 13.5939C25.3934 13.622 25.2499 13.6076 25.1196 13.5524C24.9893 13.4973 24.8779 13.4038 24.7995 13.284C24.7211 13.1641 24.6793 13.0232 24.6793 12.879C24.6793 12.6857 24.7545 12.5003 24.8882 12.3636C25.022 12.2269 25.2034 12.1501 25.3926 12.1501V12.1501ZM20.8753 1.94506C20.9693 1.94506 21.0612 1.97356 21.1394 2.02696C21.2176 2.08036 21.2786 2.15625 21.3146 2.24505C21.3506 2.33384 21.36 2.43155 21.3416 2.52582C21.3233 2.62008 21.278 2.70667 21.2115 2.77463C21.145 2.8426 21.0603 2.88888 20.968 2.90763C20.8758 2.92638 20.7802 2.91676 20.6933 2.87998C20.6064 2.8432 20.5321 2.78091 20.4799 2.701C20.4276 2.62108 20.3997 2.52713 20.3997 2.43101C20.3997 2.30213 20.4498 2.17853 20.539 2.08739C20.6282 1.99626 20.7491 1.94506 20.8753 1.94506V1.94506ZM12.3161 28.1185C12.097 28.4228 11.8104 28.6696 11.4797 28.8386C11.149 29.0075 10.7838 29.0938 10.4141 29.0904C9.78355 29.0904 9.17881 28.8344 8.73294 28.3787C8.28706 27.923 8.03657 27.305 8.03657 26.6606C8.03259 26.5563 8.04057 26.452 8.06035 26.3496C8.09419 26.1943 8.09022 26.0329 8.04876 25.8795C8.00731 25.7262 7.92965 25.5855 7.8226 25.47C7.73365 25.3747 7.62666 25.2988 7.50814 25.247C7.38961 25.1952 7.26202 25.1686 7.13311 25.1687C7.08091 25.1639 7.02839 25.1639 6.9762 25.1687C6.85528 25.1899 6.73272 25.1996 6.61005 25.1979C5.60116 25.1979 4.63358 24.7883 3.92018 24.0592C3.20678 23.3302 2.806 22.3413 2.806 21.3103C2.82001 20.6912 2.98334 20.0853 3.28151 19.5463C3.34121 19.4331 3.37837 19.3091 3.39084 19.1812C3.4033 19.0533 3.39081 18.9241 3.35411 18.8012C3.3174 18.6783 3.25721 18.564 3.177 18.465C3.09679 18.366 2.99817 18.2843 2.88684 18.2245C2.51845 18.0162 2.2281 17.6889 2.06128 17.2938C1.89446 16.8988 1.86061 16.4584 1.96502 16.0416C2.06943 15.6247 2.3062 15.2551 2.63824 14.9906C2.97028 14.7261 3.37881 14.5816 3.79981 14.5798C3.97683 14.5796 4.15028 14.5289 4.30063 14.4334C4.45098 14.3379 4.57227 14.2014 4.65084 14.0393C4.72942 13.8772 4.76216 13.6959 4.74538 13.5158C4.7286 13.3357 4.66296 13.164 4.55587 13.0199C4.05904 12.3507 3.79317 11.5322 3.79981 10.6922C3.80774 9.691 4.19335 8.73152 4.8763 8.01365C5.55925 7.29578 6.48689 6.87487 7.46597 6.8386C7.62646 6.83485 7.78341 6.78963 7.9222 6.70717C8.06098 6.6247 8.17708 6.50768 8.25968 6.36699C8.34227 6.22631 8.38868 6.06655 8.39457 5.9026C8.40045 5.73864 8.36563 5.57583 8.29335 5.42934C8.13976 5.11053 8.06158 4.75932 8.06511 4.40398C8.06511 3.75957 8.31559 3.14155 8.76147 2.68588C9.20734 2.23021 9.81208 1.97422 10.4426 1.97422C10.8123 1.97075 11.1775 2.05705 11.5082 2.22602C11.8389 2.39499 12.1256 2.64179 12.3447 2.94612L12.3161 28.1185ZM20.6375 27.2146C20.7786 27.2146 20.9165 27.2573 21.0338 27.3374C21.1511 27.4175 21.2425 27.5314 21.2965 27.6646C21.3505 27.7978 21.3646 27.9443 21.3371 28.0857C21.3095 28.2271 21.2416 28.357 21.1419 28.459C21.0421 28.5609 20.915 28.6303 20.7767 28.6584C20.6383 28.6866 20.4949 28.6721 20.3645 28.617C20.2342 28.5618 20.1228 28.4684 20.0444 28.3485C19.9661 28.2286 19.9242 28.0877 19.9242 27.9435C19.9242 27.7502 19.9994 27.5648 20.1331 27.4281C20.2669 27.2914 20.4483 27.2146 20.6375 27.2146V27.2146ZM21.3508 17.0096C21.4448 17.0096 21.5367 17.0381 21.6149 17.0915C21.6931 17.1449 21.7541 17.2208 21.7901 17.3096C21.8261 17.3984 21.8355 17.4961 21.8171 17.5903C21.7988 17.6846 21.7535 17.7712 21.687 17.8392C21.6205 17.9071 21.5358 17.9534 21.4435 17.9722C21.3513 17.9909 21.2557 17.9813 21.1688 17.9445C21.0819 17.9077 21.0076 17.8454 20.9554 17.7655C20.9031 17.6856 20.8753 17.5917 20.8753 17.4955C20.8753 17.3667 20.9254 17.2431 21.0145 17.1519C21.1037 17.0608 21.2246 17.0096 21.3508 17.0096Z"
          fill="#80FF9F"/>
</svg>

<svg width="28" height="31" fill="none" xmlns="http://www.w3.org/2000/svg"><path d="M23.067 14.094c.278.553.736.989 1.295 1.233a2.558 2.558 0 0 0 1.767.107 2.615 2.615 0 0 0 1.427-1.07 2.713 2.713 0 0 0-.332-3.387 2.569 2.569 0 0 0-3.317-.298c-.5.353-.865.873-1.03 1.471h-8.659V8.991h6.657a.94.94 0 0 0 .673-.284.983.983 0 0 0 .278-.688V4.657a2.4 2.4 0 0 0 1.162-1.112c.25-.496.326-1.065.215-1.612a2.44 2.44 0 0 0-.828-1.389 2.346 2.346 0 0 0-1.5-.544c-.546 0-1.076.192-1.5.544a2.44 2.44 0 0 0-.827 1.39 2.478 2.478 0 0 0 .215 1.61 2.4 2.4 0 0 0 1.161 1.113v2.39h-5.706V2.675a.988.988 0 0 0-.133-.486A4.303 4.303 0 0 0 12.007.413 4.193 4.193 0 0 0 9.303.268 4.276 4.276 0 0 0 7.055 1.81a4.435 4.435 0 0 0-.892 2.613c-.001.22.015.44.048.656a5.697 5.697 0 0 0-3.095 2.054 5.913 5.913 0 0 0-.786 5.814A3.814 3.814 0 0 0 .82 14.122a3.93 3.93 0 0 0-.768 1.775 3.968 3.968 0 0 0 .168 1.933c.214.62.58 1.173 1.06 1.61a5.927 5.927 0 0 0 .598 5.089 5.74 5.74 0 0 0 1.857 1.823 5.596 5.596 0 0 0 2.453.8A4.417 4.417 0 0 0 7.27 29.57a4.26 4.26 0 0 0 2.254 1.33 4.194 4.194 0 0 0 2.591-.251 4.308 4.308 0 0 0 1.97-1.738.989.989 0 0 0 .133-.486v-4.86h5.706v1.803c-.587.169-1.1.542-1.447 1.055a2.722 2.722 0 0 0 .291 3.404 2.577 2.577 0 0 0 3.327.34 2.675 2.675 0 0 0 1.05-1.465 2.733 2.733 0 0 0-.105-1.813 2.655 2.655 0 0 0-1.214-1.327v-2.964c0-.258-.1-.505-.278-.687a.94.94 0 0 0-.673-.285h-6.657v-2.673h5.23c.222.302.51.547.84.716a2.336 2.336 0 0 0 2.333-.12c.38-.246.685-.597.877-1.012a2.477 2.477 0 0 0-.306-2.578 2.378 2.378 0 0 0-1.089-.768 2.329 2.329 0 0 0-1.322-.055c-.437.11-.834.345-1.145.677a2.447 2.447 0 0 0-.615 1.197h-4.803v-2.916h8.85Zm2.326-1.944c.14 0 .279.043.396.123a.744.744 0 0 1 .108 1.121.708.708 0 0 1-.777.158.717.717 0 0 1-.32-.268.74.74 0 0 1 .088-.92.706.706 0 0 1 .505-.214ZM20.875 1.945c.094 0 .186.029.264.082a.484.484 0 0 1 .203.499.489.489 0 0 1-.13.249.472.472 0 0 1-.519.105.493.493 0 0 1-.154-.793.47.47 0 0 1 .336-.142ZM12.316 28.12c-.219.304-.506.55-.836.72-.331.169-.696.255-1.066.251-.63 0-1.235-.256-1.681-.711a2.457 2.457 0 0 1-.696-1.718 1.365 1.365 0 0 1 .023-.311.993.993 0 0 0-.237-.88.952.952 0 0 0-.69-.301.857.857 0 0 0-.157 0c-.12.02-.243.03-.366.029a3.763 3.763 0 0 1-2.69-1.139 3.931 3.931 0 0 1-1.114-2.749c.014-.619.177-1.225.476-1.764a.988.988 0 0 0-.105-1.081.956.956 0 0 0-.29-.24 1.93 1.93 0 0 1-.826-.931 1.983 1.983 0 0 1-.096-1.252c.104-.417.341-.787.673-1.051.332-.265.74-.41 1.162-.411.177 0 .35-.051.5-.147a.965.965 0 0 0 .35-.394.99.99 0 0 0-.094-1.02 3.855 3.855 0 0 1-.756-2.327 3.932 3.932 0 0 1 1.076-2.678 3.767 3.767 0 0 1 2.59-1.175.936.936 0 0 0 .456-.132.961.961 0 0 0 .338-.34.988.988 0 0 0 .033-.938 2.31 2.31 0 0 1-.228-1.025c0-.644.25-1.262.696-1.718a2.352 2.352 0 0 1 2.747-.46c.33.169.618.416.837.72l-.029 25.172Zm8.321-.904c.142 0 .28.042.397.122a.744.744 0 0 1 .108 1.122.709.709 0 0 1-.777.158.717.717 0 0 1-.32-.268.741.741 0 0 1 .088-.92.706.706 0 0 1 .505-.214Zm.714-10.205c.094 0 .186.028.264.081a.484.484 0 0 1 .202.5.49.49 0 0 1-.13.248.473.473 0 0 1-.518.106.493.493 0 0 1-.154-.793.47.47 0 0 1 .336-.142Z" fill="#80FF9F"/></svg>
